X: 132
T: Lord Minto's Waltz
C: by John Pringle
B: John Pringle "Collection of Reels Strathspeys & Jigs", 1801 p.13#2
Z: 2011 John Chambers <jc:trillian.mit.edu>
R: waltz
M: 3/8
L: 1/16
K: F
V: 1
|: c2BAGF | d2cBAG | F2E2G2 | GFBAd2 | c2BAGF | d2fedc | AcBdce f4z2 :|
|: a2fafa | g2egec | dBdfBd | gfedcB | A2cABd | c2efge | f2gece | f4z2 :|
V: 2 clef=bass middle=d
|: f2f2c2 | B2a2f2 | F2c2e2 | c2g2b2 | f2f2e2 | B2a2b2 | f2d2c2 | f2c2F2 :|
|: f2a2f2 | e2c2c2 | B2b2b2 | c'2g2c2 | f2a2f2 | c2c2e2 | f2c'2c2 | f2c2F2 :|

%%sep 2 1 500

